X: 125
T:The Mason's Men
M:4/4
L:1/8
F:http://blackrosetheband.googlepages.com/ABCTUNES.ABC May 2009
C:John Williams
S:Solas
K:D
"G"dGBd "A"cdeg|"D"a2 ge fdec|"G"dGBd "A"cdeg|"D"fdec dgfe|"G"dGBd "A"cd
eg|"D"a2 ge fdec|"G"dGBd cdeg|"A"fffe d2eg|
|:"Bm"fBBB FBdB|"A"ceae fceg|"G"fBBB FBdB|1"A"cBcd B3 e:|2 "A"cBcd B3 c ||

